images/ellipses.svg

<svg height="14pt" viewBox="0 0 14 14" width="14pt" xmlns="http://www.w3.org/2000/svg"><path d="m14 8c0 1.65685-1.3431 3-3 3h-8c-1.65685 0-2.99999935-1.34315-2.99999959-3 .00000047-1.65685 1.34314959-3 2.99999959-3h8c1.6569 0 3 1.34315 3 3z" fill="#fff"/><g fill-rule="evenodd"><path d="m3 7c.55229 0 1 .44772 1 1s-.44771 1-1 1c-.55228 0-1-.44772-1-1s.44772-1 1-1z"/><path d="m7 7c.55229 0 1 .44772 1 1s-.44771 1-1 1c-.55228 0-1-.44772-1-1s.44772-1 1-1z"/><path d="m11 7c.5523 0 1 .44772 1 1s-.4477 1-1 1-1-.44772-1-1 .4477-1 1-1z"/></g></svg>

<?xml version="1.0" encoding="utf-8"?>
<svg x="0pt" y="0pt" width="14pt" height="14pt" viewBox="0 0 14 14" xmlns="http://www.w3.org/2000/svg" xmlns:xlink="http://www.w3.org/1999/xlink">
  <g id="1">
    <title>Layer 1</title>
    <defs>
      <title>Smart Rectangle1</title>
      <g id="2">
        <defs>
          <path id="3" d="M14,8 C14,9.65685,12.6569,11,11,11 C11,11,3,11,3,11 C1.34315,11,6.45542e-07,9.65685,4.07123e-07,8 C8.8396e-07,6.34315,1.34315,5,3,5 C3,5,11,5,11,5 C12.6569,5,14,6.34315,14,8 z"/>
        </defs>
        <use xlink:href="#3" style="fill:#ffffff;fill-opacity:1;fill-rule:nonzero;opacity:1;stroke:none;"/>
      </g>
    </defs>
    <use xlink:href="#2"/>
    <defs>
      <title>Path</title>
      <g id="4">
        <defs>
          <path id="5" d="M3,7 C3.55229,7,4,7.44772,4,8 C4,8.55228,3.55229,9,3,9 C2.44772,9,2,8.55228,2,8 C2,7.44772,2.44772,7,3,7 z"/>
        </defs>
        <use xlink:href="#5" style="fill:#000000;fill-opacity:1;fill-rule:evenodd;opacity:1;stroke:none;"/>
      </g>
    </defs>
    <use xlink:href="#4"/>
    <defs>
      <title>Path Copy</title>
      <g id="6">
        <defs>
          <path id="7" d="M7,7 C7.55229,7,8,7.44772,8,8 C8,8.55228,7.55229,9,7,9 C6.44772,9,6,8.55228,6,8 C6,7.44772,6.44772,7,7,7 z"/>
        </defs>
        <use xlink:href="#7" style="fill:#000000;fill-opacity:1;fill-rule:evenodd;opacity:1;stroke:none;"/>
      </g>
    </defs>
    <use xlink:href="#6"/>
    <defs>
      <title>Path Copy 1</title>
      <g id="8">
        <defs>
          <path id="9" d="M11,7 C11.5523,7,12,7.44772,12,8 C12,8.55228,11.5523,9,11,9 C10.4477,9,10,8.55228,10,8 C10,7.44772,10.4477,7,11,7 z"/>
        </defs>
        <use xlink:href="#9" style="fill:#000000;fill-opacity:1;fill-rule:evenodd;opacity:1;stroke:none;"/>
      </g>
    </defs>
    <use xlink:href="#8"/>
  </g>
</svg>
